svg/300/sharp/back_hand.svg

<svg xmlns="http://www.w3.org/2000/svg" width="48" height="48" viewBox="0 -960 960 960"><path d="M503.923-60.002q-88 0-162.461-44.615-74.461-44.615-119.384-120.768L81.54-463.769l44.307-44.307 174.154 123.692v-425.614h45.384v513.766l-192.847-137 107.616 181.309q37.231 67.461 102.131 107 64.9 39.538 141.638 39.538 112.424 0 191.558-77.615 79.134-77.616 79.134-189.231v-407.768h45.384v407.768q0 130.413-92.444 221.321-92.443 90.909-223.632 90.909Zm-45.384-437.306v-392.69h45.384v392.69h-45.384Zm158.538 0v-352.69h45.384v352.69h-45.384ZM464.076-301.539Z"/></svg>

<svg xmlns="http://www.w3.org/2000/svg" width="48" height="48" viewBox="0 -960 960 960"><path d="M503.92-60q-88 0-162.46-44.62Q267-149.23 222.08-225.39L81.54-463.77l44.31-44.31L300-384.38V-810h45.39v513.77l-192.85-137 107.61 181.31q37.23 67.46 102.14 107 64.9 39.53 141.63 39.53 112.43 0 191.56-77.61 79.13-77.62 79.13-189.23V-780H820v407.77q0 130.41-92.44 221.32Q635.11-60 503.92-60Zm-45.38-437.31V-890h45.38v392.69h-45.38Zm158.54 0V-850h45.38v352.69h-45.38Zm-153 195.77Z"/></svg>
